!!!COM: Bach, Johann Sebastian
!!!OPR: Joh. Seb. Bachs vierstimmige Choralges‰nge
!!!XEN: Four-part Chorales
!!!OTL: 125. Mein' Augen schliess' ich jetzt
!!!SCT: BWV 378
!!!SCA: Thematisch-systematisches Verzeichnis der musikalischen Werke Johann Sebastian Bach: Bach-Werke-Verzeichnis (Schmieder)
!!!YOR: Bach Gesellschaft Edition xxxix
!!!ENC: Steven Rasmussen
!!!CDT: 1685/3//-1750/7/28/
!!!OCY: Deutschland
!!!YEC: Copyright (c) 1994, 2000 Center for Computer Assisted Research in the Humanities
!!!YEM: Rights to all derivative editions reserved
!!!YEN: United States of America
**kern	**silbe	**kern	**kern	**kern
*I:[SOPRANO]	*I:[SOPRANO]	*I:[ALTO]	*I:[TENORE]	*I:[BASSO]
*clefG2	*	*clefG2	*clefGv2	*clefF4
*k[f#]	*	*k[f#]	*k[f#]	*k[f#]
*G:	*	*G:	*G:	*G:
*M4/4	*	*M4/4	*M4/4	*M4/4
4g	Mein'	4d	8BL	8GGL
.	.	.	8AJ	8AAJ
=1	=1	=1	=1	=1
4g	Au-	4d	4G	8BBL
.	.	.	.	8CJ
4d	-gen	4A	4F#	8DL
.	.	.	.	8CJ
4g	schliess'	4d	4G	4BB
4a	ich	8eL	4c	4AA
.	.	8f#J	.	.
=2	=2	=2	=2	=2
2b;	jetzt	2g;	2d;	2GG;
4r	.	4r	4r	4r
4dd	in	4g	4d	4BB
=3	=3	=3	=3	=3
4ee	Got-	8gL	4c	4.C
.	.	8f#J	.	.
4dd	-tes	4g	4d	.
.	.	.	.	8BB
4.cc	Na-	8gL	8eL	4AA
.	.	16f#L	16dL	.
.	.	16eJJ	16cJJ	.
.	.	4f#	4d	4DD
8dd	-men	.	.	.
=4	=4	=4	=4	=4
2b;	zu,	2g;	2d;	2GG;
4r	.	4r	4r	4r
4dd	die-	4g	4B	4GG
=5	=5	=5	=5	=5
4cc	-weil	8gL	4c	4AA
.	.	8f#J	.	.
4b	der	4g	4d	8BBL
.	.	.	.	8CJ
4a	m√º-	8gL	4d	4D
.	.	8f#J	.	.
4g	-de	8gL	4c#	4E
.	.	8GJ	.	.
=6	=6	=6	=6	=6
2a;	Leib	2d;	2f#;	2D;
4r	.	4r	4r	4r
4b	be-	4f#	4B	4D#
=7	=7	=7	=7	=7
4g	-geh-	8f#L	4B	4.E
.	.	16eL	.	.
.	.	16f#JJ	.	.
4cc	-ret	8gL	8eL	.
.	.	8aJ	8dJ	8F#
4b	sei-	8aL	4d	4G
.	.	8gJ	.	.
4a	-ne	8gL	8.dL	4D
.	.	8f#J	.	.
.	.	.	16cJk	.
=8	=8	=8	=8	=8
2g;	Ruh',	2d;	2B;	2GG;
4r	.	4r	4r	4r
8bL	weiss	4g	4d	8GGL
8ccJ	.	.	.	8AAJ
=9	=9	=9	=9	=9
4dd	a-	4g	8dL	4.BB
.	.	.	8cJ	.
4dd	-ber	4g	4B	.
.	.	.	.	8E
4cc	nicht,	8gL	4c	4AA
.	.	8f#J	.	.
4b	ob	4g	4d	8BBL
.	.	.	.	8CJ
=10	=10	=10	=10	=10
2a;	ich	(4g	2d;	2D;
.	.	4f#;)	.	.
4r	.	4r	4r	4r
4b	den	4f#	4B	4D#
=11	=11	=11	=11	=11
4g	Mor-	4e	8BL	8EL
.	.	.	8cJ	8DJ
4g	-gen	4d	4d	8CL
.	.	.	.	8BBJ
4a	m√∂cht'	4e	4c	8CL
.	.	.	.	8BBJ
4b	er-	4e	4B	8AAL
.	.	.	.	8GG#J
=12	=12	=12	=12	=12
2cc	-le-	2e	8BL	8AAL
.	.	.	16AL	8BB
.	.	.	16G#JJ	.
.	.	.	4A	8C
.	.	.	.	8DJ
4b;	-ben;	4e;	(8AL	4E;
.	.	.	8G#;J)	.
4dd	es	8dL	4Gn	4BB
.	.	8fnJ	.	.
=13	=13	=13	=13	=13
4cc	k√∂nn-	(8e	4G	4C
.	.	4g)	.	.
4a	-te	.	4d	4D
.	.	8f#	.	.
4b	mich	4g	4d	8GL
.	.	.	.	8F#J
4cc	der	4g	4e	4E
=14	=14	=14	=14	=14
2dd;	Tod	2g;	2d;	2BB;
4r	.	4r	4r	4r
4g	viel-	4e	4B	8EL
.	.	.	.	8DJ
=15	=15	=15	=15	=15
4a	-leicht	8eL	8cL	4C
.	.	8f#J	8dJ	.
4b	noch	4g	8dL	8BBL
.	.	.	16eL	8EJ
.	.	.	16dJJ	.
4cc	heut'	8gL	4c	4AA
.	.	8f#J	.	.
4b	um-	4g	4d	8BBL
.	.	.	.	8GGJ
=16	=16	=16	=16	=16
2a	-ge-	8gL	4e	4C
.	.	16f#L	.	.
.	.	16eJJ	.	.
.	.	4f#	8.dL	4D
.	.	.	16cJk	.
4g;	-ben.	4d;	4B;	4GG;
==|!	==|!	==|!	==|!	==|!
*-	*-	*-	*-	*-
!!!RWG: Key is interpreted using the Humdrum key tool.
!!!END: 1994/07/18
!!!EMD: Converted from MuseData to Humdrum Dec 19, 2000, by Andreas Kornstaedt using muse2kern.
!!!EED: Craig Stuart Sapp
!!!EEV: 2024/03/31
!!!ONB: Some non-unicode characters
